X: 9667
T: Dead And Breakfast
R: reel
M: 4/4
K: Eminor
BEEE AEAB|EABE BAGB|AFFF EFDF|ADFA BAFA|
BEEE AEAB|EABE BAGB|cBBA AGAF|1 EFGA GFED:|2 EGGA (3Bcd ef||
gBdg Bdge|fAdf gfed|BEEE DAAD|ADBD Afgf|
gBdg Bdge|faaa agfa|beae geee|fgaf gfed|
GBdg BGeB|fAdf gfed|BEEE DAAD|ADBD Afgf|
gBdg Bdge|faaa agfa|beae geee|fgag geed|

